X:1
T:Berkeley Windmill (Theme Vannitaise)
P:Fieldtown
P:A.(AB)4
M:4/4
Q: 140
K:Em
P:A
|: "Em" E2B2B2AB|G2E2E4| "D" A2AGF2FE|[1DE FAG2F2:|[2DE FA "Em" E4||
P:B
|"Em" EF GF EF GF |EF GA B2G2| "D" DE FE D3E|F2A2G2F2|
| "Em" EF GF EF GF |EF GA B2G2| "D" DE FE D3A|G2F2 "Em" E4|]
